X: 41680
T: Ur-Chnoc Chein Mhic Cainte
R: waltz
M: 3/4
K: Aminor
G2|c3d c2|B4GE|F D3E2|C4CD|E3F G2|B3c d2|c4B2|
G4G2|c3d c2|B4GE|F D3E2|C4CD|E3F GE|F D3B,2|C6|C4GF||
E2G2c2|c3c cd|e3d c2|c B3G2|c3d e2|d B3d2|c4B2|
c4G2|c2B2G2|F4A2|A2G2F2|E4CD|E3F GE|F D3B,2|C6|C4||

